src/assets/sidebar_icons/settings-5-line.svg

<svg width="24" height="24" viewBox="0 0 24 24" fill="none" xmlns="http://www.w3.org/2000/svg">
<path d="M2.21276 14.06C1.92517 12.7017 1.92517 11.2983 2.21276 9.94001C3.32276 10.07 4.29276 9.70301 4.60876 8.93901C4.92576 8.17401 4.50076 7.22901 3.62276 6.53601C4.3798 5.37233 5.37209 4.38005 6.53576 3.62301C7.22776 4.50001 8.17376 4.92601 8.93876 4.60901C9.70376 4.29201 10.0708 3.32301 9.93976 2.21301C11.298 1.92542 12.7015 1.92542 14.0598 2.21301C13.9298 3.32301 14.2968 4.29301 15.0608 4.60901C15.8258 4.92601 16.7708 4.50101 17.4638 3.62301C18.6274 4.38005 19.6197 5.37233 20.3768 6.53601C19.4998 7.22801 19.0738 8.17401 19.3908 8.93901C19.7078 9.70401 20.6768 10.071 21.7868 9.94001C22.0744 11.2983 22.0744 12.7017 21.7868 14.06C20.6768 13.93 19.7068 14.297 19.3908 15.061C19.0738 15.826 19.4988 16.771 20.3768 17.464C19.6197 18.6277 18.6274 19.62 17.4638 20.377C16.7718 19.5 15.8258 19.074 15.0608 19.391C14.2958 19.708 13.9288 20.677 14.0598 21.787C12.7015 22.0746 11.298 22.0746 9.93976 21.787C10.0698 20.677 9.70276 19.707 8.93876 19.391C8.17376 19.074 7.22876 19.499 6.53576 20.377C5.37209 19.62 4.3798 18.6277 3.62276 17.464C4.49976 16.772 4.92576 15.826 4.60876 15.061C4.29176 14.296 3.32276 13.929 2.21276 14.06V14.06ZM3.99976 12.21C5.09976 12.515 6.00676 13.212 6.45676 14.296C6.90576 15.381 6.75676 16.516 6.19476 17.508C6.29076 17.61 6.38976 17.709 6.49176 17.805C7.48476 17.243 8.61876 17.095 9.70376 17.543C10.7878 17.993 11.4848 18.9 11.7898 20C11.9298 20.004 12.0698 20.004 12.2098 20C12.5148 18.9 13.2118 17.993 14.2958 17.543C15.3808 17.094 16.5158 17.243 17.5078 17.805C17.6098 17.709 17.7088 17.61 17.8048 17.508C17.2428 16.515 17.0948 15.381 17.5428 14.296C17.9928 13.212 18.8998 12.515 19.9998 12.21C20.0038 12.07 20.0038 11.93 19.9998 11.79C18.8998 11.485 17.9928 10.788 17.5428 9.70401C17.0938 8.61901 17.2428 7.48401 17.8048 6.49201C17.7084 6.3904 17.6094 6.29137 17.5078 6.19501C16.5148 6.75701 15.3808 6.90501 14.2958 6.45701C13.2118 6.00701 12.5148 5.10001 12.2098 4.00001C12.0698 3.9963 11.9297 3.9963 11.7898 4.00001C11.4848 5.10001 10.7878 6.00701 9.70376 6.45701C8.61876 6.90601 7.48376 6.75701 6.49176 6.19501C6.38976 6.29101 6.29076 6.39001 6.19476 6.49201C6.75676 7.48501 6.90476 8.61901 6.45676 9.70401C6.00676 10.788 5.09976 11.485 3.99976 11.79C3.99576 11.93 3.99576 12.07 3.99976 12.21V12.21ZM11.9998 15C11.2041 15 10.4411 14.6839 9.87844 14.1213C9.31583 13.5587 8.99976 12.7957 8.99976 12C8.99976 11.2044 9.31583 10.4413 9.87844 9.87869C10.4411 9.31608 11.2041 9.00001 11.9998 9.00001C12.7954 9.00001 13.5585 9.31608 14.1211 9.87869C14.6837 10.4413 14.9998 11.2044 14.9998 12C14.9998 12.7957 14.6837 13.5587 14.1211 14.1213C13.5585 14.6839 12.7954 15 11.9998 15ZM11.9998 13C12.265 13 12.5193 12.8946 12.7069 12.7071C12.8944 12.5196 12.9998 12.2652 12.9998 12C12.9998 11.7348 12.8944 11.4804 12.7069 11.2929C12.5193 11.1054 12.265 11 11.9998 11C11.7345 11 11.4802 11.1054 11.2927 11.2929C11.1051 11.4804 10.9998 11.7348 10.9998 12C10.9998 12.2652 11.1051 12.5196 11.2927 12.7071C11.4802 12.8946 11.7345 13 11.9998 13V13Z" fill="#828282"/>
</svg>

<svg xmlns="http://www.w3.org/2000/svg" viewBox="0 0 24 24" width="24" height="24"><path fill="none" d="M0 0h24v24H0z"/><path d="M2.213 14.06a9.945 9.945 0 0 1 0-4.12c1.11.13 2.08-.237 2.396-1.001.317-.765-.108-1.71-.986-2.403a9.945 9.945 0 0 1 2.913-2.913c.692.877 1.638 1.303 2.403.986.765-.317 1.132-1.286 1.001-2.396a9.945 9.945 0 0 1 4.12 0c-.13 1.11.237 2.08 1.001 2.396.765.317 1.71-.108 2.403-.986a9.945 9.945 0 0 1 2.913 2.913c-.877.692-1.303 1.638-.986 2.403.317.765 1.286 1.132 2.396 1.001a9.945 9.945 0 0 1 0 4.12c-1.11-.13-2.08.237-2.396 1.001-.317.765.108 1.71.986 2.403a9.945 9.945 0 0 1-2.913 2.913c-.692-.877-1.638-1.303-2.403-.986-.765.317-1.132 1.286-1.001 2.396a9.945 9.945 0 0 1-4.12 0c.13-1.11-.237-2.08-1.001-2.396-.765-.317-1.71.108-2.403.986a9.945 9.945 0 0 1-2.913-2.913c.877-.692 1.303-1.638.986-2.403-.317-.765-1.286-1.132-2.396-1.001zM4 12.21c1.1.305 2.007 1.002 2.457 2.086.449 1.085.3 2.22-.262 3.212.096.102.195.201.297.297.993-.562 2.127-.71 3.212-.262 1.084.45 1.781 1.357 2.086 2.457.14.004.28.004.42 0 .305-1.1 1.002-2.007 2.086-2.457 1.085-.449 2.22-.3 3.212.262.102-.096.201-.195.297-.297-.562-.993-.71-2.127-.262-3.212.45-1.084 1.357-1.781 2.457-2.086.004-.14.004-.28 0-.42-1.1-.305-2.007-1.002-2.457-2.086-.449-1.085-.3-2.22.262-3.212a7.935 7.935 0 0 0-.297-.297c-.993.562-2.127.71-3.212.262C13.212 6.007 12.515 5.1 12.21 4a7.935 7.935 0 0 0-.42 0c-.305 1.1-1.002 2.007-2.086 2.457-1.085.449-2.22.3-3.212-.262-.102.096-.201.195-.297.297.562.993.71 2.127.262 3.212C6.007 10.788 5.1 11.485 4 11.79c-.004.14-.004.28 0 .42zM12 15a3 3 0 1 1 0-6 3 3 0 0 1 0 6zm0-2a1 1 0 1 0 0-2 1 1 0 0 0 0 2z"/></svg>
